X:100
T:Cupids Frolic THO4.100
M:2/4
L:1/8
Z:vmp. Peter Dunk 2010/11.from a transcription by Fynn Titford-Mock 2007
B:Thompson's Compleat Collection of 200 Favourite Country Dances Volume IV.
Q:1/4=140
K:A
A|ceBd|ceBd|cAGA|T(B/A/B/c/) BA|ceBd|ceBd|cABG|T(A/G/A/B/) A:|
|:A|ceae|Tf2 ee|dcTBA|(G/A/B/c/) BB|ceae|Tf2 ed|cBTAG|T(A/G/A/B/) A:|
